X: 448
P: Longways for as many as will
M: 6/4
L: 1/8
K: Gm
a2g2f2 d2g2f2 | d3c  B2 f4 d2 | (cd)(cA) (G^F) G3A Bc | d4 B2 G4 :|
|: A/B/c |\
d2 (Bc)(dB) d2 (Bc)(dB) | d2 (Bc)(dB) G4 AB | c2 (AB)(cA) c2 (AB)(cA) | c2 (AB)(cA) F3A Bc |\
d2 (Bc)(dB) d2 (Bc)(dB) | d2 BcdB f4 d2 | (cd)(cA) (G^F) G3A Bc | d4B2 G4 :|
|: dc |\

